X: 6
T: Up Sligo
R: jig
M: 6/8
L: 1/8
K: Emin
|: EBB BAG | FDF AGF | EBB Bcd | AGF EFD |EBB BAG | FDF AGF | EBB Bcd | AGF E2D :||: Bee efg | fdB AFD | Bee efg | fdf e2A |Bee efg | fdB AFD | EBB Bcd | AGF E2E :|


Tune 537	Setting 26495

